common/svg/settings-filled-icon.svg

<svg fill="none" height="20" viewBox="0 0 20 20" width="20" xmlns="http://www.w3.org/2000/svg"><path clip-rule="evenodd" d="m7.92717.400544c.04218-.231947.24419-.400544.47994-.400544h3.18579c.2357 0 .4378.168598.4799.400544l.4555 2.504986c.0642.35301.4747.51826.7655.30819l2.0361-1.47049c.1941-.14018.4612-.11877.6305.05052l2.2458 2.24583c.1693.1693.1907.43644.0506.63053l-1.4705 2.03607c-.2101.29087-.0448.70136.3082.76554l2.505.45545c.2319.04218.4005.24419.4005.47994v3.18579c0 .2357-.1686.4378-.4005.4799l-2.505.4555c-.353.0642-.5183.4747-.3082.7655l1.4705 2.0361c.1401.1941.1187.4612-.0506.6305l-2.2458 2.2458c-.1693.1693-.4364.1907-.6305.0506l-2.0361-1.4705c-.2908-.2101-.7013-.0448-.7655.3082l-.4555 2.505c-.0421.2319-.2442.4005-.4799.4005h-3.18579c-.23575 0-.43776-.1686-.47994-.4005l-.45545-2.505c-.06418-.353-.47467-.5183-.76554-.3082l-2.03607 1.4705c-.19409.1401-.46123.1187-.63053-.0506l-2.24583-2.2458c-.16929-.1693-.1907-.4364-.05052-.6305l1.47049-2.0361c.21007-.2908.04482-.7013-.30819-.7655l-2.504986-.4555c-.231947-.0421-.400544-.2442-.400544-.4799v-3.18579c0-.23575.168598-.43776.400544-.47994l2.504986-.45545c.35301-.06418.51826-.47467.30819-.76554l-1.47049-2.03607c-.14018-.19409-.11877-.46123.05052-.63053l2.24583-2.24583c.1693-.16929.43644-.1907.63053-.05052l2.03607 1.47049c.29087.21007.70136.04482.76554-.30819zm2.07283 12.770156c1.7511 0 3.1707-1.4196 3.1707-3.1707 0-1.75115-1.4196-3.17073-3.1707-3.17073-1.75115 0-3.17073 1.41958-3.17073 3.17073 0 1.7511 1.41958 3.1707 3.17073 3.1707z" fill="#000" fill-rule="evenodd"/></svg>

<svg width="20" height="20" viewBox="0 0 20 20" fill="none" xmlns="http://www.w3.org/2000/svg">
<path fill-rule="evenodd" clip-rule="evenodd" d="M7.92717 0.400544C7.96935 0.168597 8.17136 0 8.40711 0H11.5929C11.8286 0 12.0307 0.168598 12.0728 0.400544L12.5283 2.90553C12.5925 3.25854 13.003 3.42379 13.2938 3.21372L15.3299 1.74323C15.524 1.60305 15.7911 1.62446 15.9604 1.79375L18.2062 4.03958C18.3755 4.20888 18.3969 4.47602 18.2568 4.67011L16.7863 6.70618C16.5762 6.99705 16.7415 7.40754 17.0945 7.47172L19.5995 7.92717C19.8314 7.96935 20 8.17136 20 8.40711V11.5929C20 11.8286 19.8314 12.0307 19.5995 12.0728L17.0945 12.5283C16.7415 12.5925 16.5762 13.003 16.7863 13.2938L18.2568 15.3299C18.3969 15.524 18.3755 15.7911 18.2062 15.9604L15.9604 18.2062C15.7911 18.3755 15.524 18.3969 15.3299 18.2568L13.2938 16.7863C13.003 16.5762 12.5925 16.7415 12.5283 17.0945L12.0728 19.5995C12.0307 19.8314 11.8286 20 11.5929 20H8.40711C8.17136 20 7.96935 19.8314 7.92717 19.5995L7.47172 17.0945C7.40754 16.7415 6.99705 16.5762 6.70618 16.7863L4.67011 18.2568C4.47602 18.3969 4.20888 18.3755 4.03958 18.2062L1.79375 15.9604C1.62446 15.7911 1.60305 15.524 1.74323 15.3299L3.21372 13.2938C3.42379 13.003 3.25854 12.5925 2.90553 12.5283L0.400544 12.0728C0.168597 12.0307 0 11.8286 0 11.5929V8.40711C0 8.17136 0.168598 7.96935 0.400544 7.92717L2.90553 7.47172C3.25854 7.40754 3.42379 6.99705 3.21372 6.70618L1.74323 4.67011C1.60305 4.47602 1.62446 4.20888 1.79375 4.03958L4.03958 1.79375C4.20888 1.62446 4.47602 1.60305 4.67011 1.74323L6.70618 3.21372C6.99705 3.42379 7.40754 3.25854 7.47172 2.90553L7.92717 0.400544ZM10 13.1707C11.7511 13.1707 13.1707 11.7511 13.1707 10C13.1707 8.24885 11.7511 6.82927 10 6.82927C8.24885 6.82927 6.82927 8.24885 6.82927 10C6.82927 11.7511 8.24885 13.1707 10 13.1707Z" fill="black"/>
</svg>
